!!!SOCIAL_FUNCTION:	songs with hunting dance
!!!PDT:	1956
!!!OTL: No_62_Calusa_Hunting_Dance_Song_(f).krn
!!!LANG: Non-Tone
!!!LING_GROUP: Muskogean
!!!REG: Florida
**kern
*staff1
=1-
*clefF4
*k[b-]
*M7/8
2.r
16c\LL
16c\JJ
=2
4d\
8d\L
8d\
16c\L
16c\J
8c\
16.c\L
32c\JJk
=3||
*M4/8
4.c\
8c\
=4||
*M7/8
4d\
8d\L
8d\
16c\L
16c\J
8c\
16.c\L
32c\JJk
=5||
*M3/4
4.c\
8G\
4c\
=6
4..c\
16c\
4c\
=7||
*M2/4
2c\
=8
8d\L
16c\L
16c\JJ
8c\L
8G\J
=9||
*M3/4
8c\L
16B-\L
16G\JJ
2G\
=10||
*M2/4
8G\L
16G\L
16F\JJ
8D/L
8C/J
=11
8D/L
16C/L
16C/JJ
4C/
=12
16G\LK
8.D\J
8D\L
16D\L
16C\JJ
=13
8C/L
16C/L
16C/JJ
4C/
=14||
*M7/8
16D/LK
8.C/
16D/K
8.C/J
4C/
8c\
=15
4d\
8d\L
8d\
16c\L
16c\J
8c\
16c\L
16c\JJ
=16||
*M3/4
(4.c\
8G\)
4c\
=17
4.c\
8G\
4c\
=18
4c\
2r
*-
